!!!COM: Palestrina, Giovanni Perluigi da
!!!OPR: Missa O Regem coeli
!!!OMD: Benedictus
!!!OTL: Hosanna
**kern	**kern	**kern	**kern
*Ibass	*Itenor	*Icalto	*Icant
!Bassus	!Tenor	!Altus	!Cantus
*clefF4	*clefGv2	*clefG2	*clefG2
*k[b-]	*k[b-]	*k[b-]	*k[b-]
*G:dor	*G:dor	*G:dor	*G:dor
*M3/2	*M3/2	*M3/2	*M3/2
=36	=36	=36	=36
1r	1r	1a	1r
2r	2r	2g	2r
=37	=37	=37	=37
1r	1r	2f	1dd
.	.	2b-	.
2r	2r	[2a	2cc
=38	=38	=38	=38
1r	1r	4a]	2b-
.	.	4g	.
.	.	2g	2.ee-
2r	2r	2f	.
.	.	.	4dd
=39	=39	=39	=39
2r	1r	2d	1dd
1A	.	2.e	.
.	2r	.	2cc
.	.	4f	.
=40	=40	=40	=40
1G	1r	2g	2.b-
.	.	2d	.
.	.	.	4g
2F	2r	2f	[2a
=41	=41	=41	=41
1B-	1d	2f	4a]
.	.	.	4f
.	.	4e	2g
.	.	4d	.
2A	2c	2e	2a
=42	=42	=42	=42
1G	2B-	1r	1b-
.	2.e-	.	.
2F	.	2r	2a
.	4d	.	.
=43	=43	=43	=43
2D	2.d	1a	1r
1E-	.	.	.
.	4c	.	.
.	2c	2g	2r
=44	=44	=44	=44
1D	2.d	2f	2r
.	.	2b-	2dd
.	4e	.	.
2r	2f	[2a	2cc
=45	=45	=45	=45
1r	2g	4a]	2b-
.	.	4g	.
.	2c	1g	2.ee-
2r	[2d	.	.
.	.	.	4dd
=46	=46	=46	=46
1r	2d]	2f	1dd
.	2.e	2g	.
2A	.	2a	2cc
.	4f#	.	.
=47	=47	=47	=47
2G	2g	2d	2b-
2F	2c	1f	2.a
[2B-	2d	.	.
.	.	.	4g
=48	=48	=48	=48
2B-]	2G	2d	1g
1A	1c	2e-	.
.	.	2c	2f#
=49	=49	=49	=49
2.G	2.B-	1d	1g
4A	4c	.	.
2B-	2d	2r	2r
=50	=50	=50	=50
2A	2c	2f	1r
2B-	2d	2f	.
2G	2B-	2g	2r
=51	=51	=51	=51
1F	1c	2.a	2f
.	.	.	2f
.	.	4g	.
2r	2r	2e	2g
=52	=52	=52	=52
1r	1r	2f	2.a
.	.	2d	.
.	.	.	4b-
2r	2r	2e	2cc
=53	=53	=53	=53
1r	2B-	2f	1dd
.	2B-	1g	.
2r	2c	.	2cc
=54	=54	=54	=54
1r	2.d	2f	2a
.	.	2.b-	2.dd
.	4e	.	.
2r	2f	.	.
.	.	4a	4cc
=55	=55	=55	=55
2F	2c	1a	1cc
2F	1d	.	.
2G	.	2g	2b
=56	=56	=56	=56
2.A	2.c	1e	1.cc
4B-	4d	.	.
2c	2e	2r	.
=57	=57	=57	=57
2A	2c	2f	1r
2B-	2d	2f	.
2G	2e	2g	2r
=58	=58	=58	=58
2F	1.f	2.a	2cc
2A	.	.	2cc
.	.	4g	.
2B-	.	2f	2dd
=59	=59	=59	=59
2c	1r	2e	2ee
2.d	.	4d	2.ff
.	.	4e	.
.	2r	4f	.
4c	.	4g	4ee
=60	=60	=60	=60
2A	2f	2a	2cc
1B-	2f	2d	1dd
.	2g	2r	.
=61	=61	=61	=61
1F	2.a	2f	1.cc
.	.	2f	.
.	4g	.	.
2c	2e	2g	.
=62	=62	=62	=62
2.F	2.f	2.a	1r
4G	4e	4g	.
2A	2c#	2e	2r
=63	=63	=63	=63
1D	1d	2.f	2a
.	.	.	2a
.	.	4e	.
2r	2G	2d	2b-
=64	=64	=64	=64
1r	2.A	2c	2.cc
.	.	2f	.
.	4B-	.	4b-
2r	2c	2e	2g
=65	=65	=65	=65
2r	2F	2f	2a
2BB-	1f	2d	1dd
2BB-	.	[2g	.
=66	=66	=66	=66
2C	2e	2g]	2cc
2.D	2d	2.f	2b-
.	[2f	.	4a
4E	.	4e	4g
=67	=67	=67	=67
2F	4f]	4d	2a
.	4e-	4c	.
1G	4d	2B-	2.b-
.	4c	.	.
.	2B-	2d	.
.	.	.	4a
=68	=68	=68	=68
2C	2c	2e-	1g
1D	1A	1d	.
.	.	.	2f#
=69	=69	=69	=69
2G	2G	1d	2g
2r	2G	.	2b-
2r	2G	2r	2b-
=70	=70	=70	=70
1r	2A	2f	2cc
.	1B-	2f	1dd
2r	.	2g	.
=71	=71	=71	=71
2r	2F	2a	2cc
2BB-	1f	2d	1dd
2BB-	.	[2g	.
=72	=72	=72	=72
2C	2e	2g]	2cc
2.D	2d	2.f	2b-
.	[2f	.	4a
4E	.	4e	4g
=73	=73	=73	=73
2F	4f]	4d	2a
.	4e-	4c	.
1G	4d	2B-	2.b-
.	4c	.	.
.	2B-	2d	.
.	.	.	4a
=74	=74	=74	=74
2C	2c	2e-	1g
1D	1A	1d	.
.	.	.	2f#
=75	=75	=75	=75
1.G	1.G	1.d	1.g
==	==	==	==
*-	*-	*-	*-
!!!CDT: 1525/^1526/-1594/2/2
!!!OCY: Italia
!!!AGN: Mass (Parody)
!!!AST: renaissance, vocal
!!!ASW: Motet 1532 (Silva)
!!!PWK: Masses, Book I
!!!RNB: Cadence finals: D
!!!YOR: Le Opere Complete, v. 1, p. 35
!!!YOO: Rome, Italy: Fratelli Scalera
!!!END: 1992//
!!!EED: John Miller
!!!YEC: Copyright 2000, John Miller
!!!YEN: United States of America
!!!YEM: Rights to all derivative electronic formats reserved.
!!!YEM: Refer to licensing agreement for further details.
!!!YEM: This file must be accompanied by the licensing agreement.
!!!YEM: A copy of the licensing agreement may be found at http://www.music-cog.ohio-state.edu/HumdrumDatabases/Palestrina/license.txt
!!!EMD: converted to Humdrum by Bret Aarden
